images/50159191.svg

<?xml version="1.0" encoding="UTF-8"?>
<svg xmlns="http://www.w3.org/2000/svg" xmlns:xlink="http://www.w3.org/1999/xlink" width="300pt" height="300pt" viewBox="0 0 300 300" version="1.1">
<defs>
<g>
<symbol overflow="visible" id="glyph0-0">
<path style="stroke:none;" d="M 0.796875 2.828125 L 0.796875 -11.28125 L 8.796875 -11.28125 L 8.796875 2.828125 Z M 1.703125 1.9375 L 7.90625 1.9375 L 7.90625 -10.390625 L 1.703125 -10.390625 Z M 1.703125 1.9375 "/>
</symbol>
<symbol overflow="visible" id="glyph0-1">
<path style="stroke:none;" d="M 1.578125 -11.671875 L 3.703125 -11.671875 L 8.875 -1.90625 L 8.875 -11.671875 L 10.40625 -11.671875 L 10.40625 0 L 8.28125 0 L 3.109375 -9.765625 L 3.109375 0 L 1.578125 0 Z M 1.578125 -11.671875 "/>
</symbol>
<symbol overflow="visible" id="glyph0-2">
<path style="stroke:none;" d="M 1.578125 -11.671875 L 3.15625 -11.671875 L 3.15625 -6.890625 L 8.890625 -6.890625 L 8.890625 -11.671875 L 10.46875 -11.671875 L 10.46875 0 L 8.890625 0 L 8.890625 -5.5625 L 3.15625 -5.5625 L 3.15625 0 L 1.578125 0 Z M 1.578125 -11.671875 "/>
</symbol>
</g>
</defs>
<g id="surface25757">
<rect x="0" y="0" width="300" height="300" style="fill:rgb(100%,100%,100%);fill-opacity:1;stroke:none;"/>
<path style="fill:none;stroke-width:1.2;stroke-linecap:butt;stroke-linejoin:miter;stroke:rgb(0%,0%,100%);stroke-opacity:1;stroke-miterlimit:10;" d="M 132.886719 180.945312 L 151.074219 175.035156 "/>
<path style="fill:none;stroke-width:1.2;stroke-linecap:butt;stroke-linejoin:miter;stroke:rgb(0%,0%,0%);stroke-opacity:1;stroke-miterlimit:10;" d="M 151.074219 175.035156 L 169.265625 169.125 "/>
<path style="fill:none;stroke-width:1.2;stroke-linecap:butt;stroke-linejoin:miter;stroke:rgb(0%,0%,0%);stroke-opacity:1;stroke-miterlimit:10;" d="M 110.402344 150 L 121.644531 165.472656 "/>
<path style="fill:none;stroke-width:1.2;stroke-linecap:butt;stroke-linejoin:miter;stroke:rgb(0%,0%,100%);stroke-opacity:1;stroke-miterlimit:10;" d="M 121.644531 165.472656 L 132.886719 180.945312 "/>
<path style=" stroke:none;fill-rule:nonzero;fill:rgb(100%,100%,100%);fill-opacity:1;" d="M 120.886719 171.445312 L 144.886719 171.445312 L 144.886719 190.445312 L 120.886719 190.445312 Z M 120.886719 171.445312 "/>
<g style="fill:rgb(0%,0%,100%);fill-opacity:1;">
  <use xlink:href="#glyph0-1" x="120.886719" y="186.296875"/>
  <use xlink:href="#glyph0-2" x="132.855469" y="186.296875"/>
</g>
<path style="fill:none;stroke-width:1.2;stroke-linecap:butt;stroke-linejoin:miter;stroke:rgb(0%,0%,0%);stroke-opacity:1;stroke-miterlimit:10;" d="M 169.265625 169.125 L 169.265625 130.875 "/>
<path style="fill:none;stroke-width:1.2;stroke-linecap:butt;stroke-linejoin:miter;stroke:rgb(0%,0%,0%);stroke-opacity:1;stroke-miterlimit:10;" d="M 160.265625 165.300781 L 160.265625 134.699219 "/>
<path style="fill:none;stroke-width:1.2;stroke-linecap:butt;stroke-linejoin:miter;stroke:rgb(0%,0%,0%);stroke-opacity:1;stroke-miterlimit:10;" d="M 169.265625 169.125 L 200.207031 191.609375 "/>
<path style="fill:none;stroke-width:1.2;stroke-linecap:butt;stroke-linejoin:miter;stroke:rgb(0%,0%,0%);stroke-opacity:1;stroke-miterlimit:10;" d="M 169.265625 130.875 L 151.074219 124.964844 "/>
<path style="fill:none;stroke-width:1.2;stroke-linecap:butt;stroke-linejoin:miter;stroke:rgb(0%,0%,100%);stroke-opacity:1;stroke-miterlimit:10;" d="M 151.074219 124.964844 L 132.886719 119.054688 "/>
<path style="fill:none;stroke-width:1.2;stroke-linecap:butt;stroke-linejoin:miter;stroke:rgb(0%,0%,0%);stroke-opacity:1;stroke-miterlimit:10;" d="M 169.265625 130.875 L 200.207031 108.390625 "/>
<path style="fill:none;stroke-width:1.2;stroke-linecap:butt;stroke-linejoin:miter;stroke:rgb(0%,0%,100%);stroke-opacity:1;stroke-miterlimit:10;" d="M 132.886719 119.054688 L 121.644531 134.527344 "/>
<path style="fill:none;stroke-width:1.2;stroke-linecap:butt;stroke-linejoin:miter;stroke:rgb(0%,0%,0%);stroke-opacity:1;stroke-miterlimit:10;" d="M 121.644531 134.527344 L 110.402344 150 "/>
<path style="fill:none;stroke-width:1.2;stroke-linecap:butt;stroke-linejoin:miter;stroke:rgb(0%,0%,100%);stroke-opacity:1;stroke-miterlimit:10;" d="M 137.917969 127.441406 L 128.925781 139.816406 "/>
<path style="fill:none;stroke-width:1.2;stroke-linecap:butt;stroke-linejoin:miter;stroke:rgb(0%,0%,0%);stroke-opacity:1;stroke-miterlimit:10;" d="M 128.925781 139.816406 L 119.933594 152.195312 "/>
<path style=" stroke:none;fill-rule:nonzero;fill:rgb(100%,100%,100%);fill-opacity:1;" d="M 126.886719 109.554688 L 138.886719 109.554688 L 138.886719 128.554688 L 126.886719 128.554688 Z M 126.886719 109.554688 "/>
<g style="fill:rgb(0%,0%,100%);fill-opacity:1;">
  <use xlink:href="#glyph0-1" x="126.886719" y="124.40625"/>
</g>
<path style="fill:none;stroke-width:1.2;stroke-linecap:butt;stroke-linejoin:miter;stroke:rgb(0%,0%,0%);stroke-opacity:1;stroke-miterlimit:10;" d="M 110.402344 150 L 72.152344 150 "/>
<path style="fill:none;stroke-width:1.2;stroke-linecap:butt;stroke-linejoin:miter;stroke:rgb(0%,0%,0%);stroke-opacity:1;stroke-miterlimit:10;" d="M 72.152344 150 L 33.902344 150 "/>
<path style="fill:none;stroke-width:1.2;stroke-linecap:butt;stroke-linejoin:miter;stroke:rgb(0%,0%,0%);stroke-opacity:1;stroke-miterlimit:10;" d="M 72.152344 150 L 72.152344 111.75 "/>
<path style="fill:none;stroke-width:1.2;stroke-linecap:butt;stroke-linejoin:miter;stroke:rgb(0%,0%,0%);stroke-opacity:1;stroke-miterlimit:10;" d="M 72.152344 150 L 72.152344 188.25 "/>
<path style="fill:none;stroke-width:1.2;stroke-linecap:butt;stroke-linejoin:miter;stroke:rgb(0%,0%,0%);stroke-opacity:1;stroke-miterlimit:10;" d="M 200.207031 108.390625 L 235.152344 123.949219 "/>
<path style="fill:none;stroke-width:1.2;stroke-linecap:butt;stroke-linejoin:miter;stroke:rgb(0%,0%,0%);stroke-opacity:1;stroke-miterlimit:10;" d="M 207.363281 101.726562 L 235.316406 114.171875 "/>
<path style="fill:none;stroke-width:1.2;stroke-linecap:butt;stroke-linejoin:miter;stroke:rgb(0%,0%,0%);stroke-opacity:1;stroke-miterlimit:10;" d="M 196.210938 70.351562 L 200.207031 108.390625 "/>
<path style="fill:none;stroke-width:1.2;stroke-linecap:butt;stroke-linejoin:miter;stroke:rgb(0%,0%,0%);stroke-opacity:1;stroke-miterlimit:10;" d="M 235.152344 123.949219 L 266.097656 101.46875 "/>
<path style="fill:none;stroke-width:1.2;stroke-linecap:butt;stroke-linejoin:miter;stroke:rgb(0%,0%,0%);stroke-opacity:1;stroke-miterlimit:10;" d="M 266.097656 101.46875 L 264.097656 82.445312 "/>
<path style="fill:none;stroke-width:1.2;stroke-linecap:butt;stroke-linejoin:miter;stroke:rgb(0%,0%,100%);stroke-opacity:1;stroke-miterlimit:10;" d="M 264.097656 82.445312 L 262.097656 63.425781 "/>
<path style="fill:none;stroke-width:1.2;stroke-linecap:butt;stroke-linejoin:miter;stroke:rgb(0%,0%,0%);stroke-opacity:1;stroke-miterlimit:10;" d="M 256.746094 98.605469 L 255.148438 83.386719 "/>
<path style="fill:none;stroke-width:1.2;stroke-linecap:butt;stroke-linejoin:miter;stroke:rgb(0%,0%,100%);stroke-opacity:1;stroke-miterlimit:10;" d="M 255.148438 83.386719 L 253.546875 68.171875 "/>
<path style="fill:none;stroke-width:1.2;stroke-linecap:butt;stroke-linejoin:miter;stroke:rgb(0%,0%,100%);stroke-opacity:1;stroke-miterlimit:10;" d="M 262.097656 63.425781 L 244.628906 55.648438 "/>
<path style="fill:none;stroke-width:1.2;stroke-linecap:butt;stroke-linejoin:miter;stroke:rgb(0%,0%,0%);stroke-opacity:1;stroke-miterlimit:10;" d="M 244.628906 55.648438 L 227.15625 47.867188 "/>
<path style=" stroke:none;fill-rule:nonzero;fill:rgb(100%,100%,100%);fill-opacity:1;" d="M 256.097656 53.925781 L 268.097656 53.925781 L 268.097656 72.925781 L 256.097656 72.925781 Z M 256.097656 53.925781 "/>
<g style="fill:rgb(0%,0%,100%);fill-opacity:1;">
  <use xlink:href="#glyph0-1" x="256.097656" y="68.777344"/>
</g>
<path style="fill:none;stroke-width:1.2;stroke-linecap:butt;stroke-linejoin:miter;stroke:rgb(0%,0%,0%);stroke-opacity:1;stroke-miterlimit:10;" d="M 227.15625 47.867188 L 196.210938 70.351562 "/>
<path style="fill:none;stroke-width:1.2;stroke-linecap:butt;stroke-linejoin:miter;stroke:rgb(0%,0%,0%);stroke-opacity:1;stroke-miterlimit:10;" d="M 229.351562 57.398438 L 204.59375 75.382812 "/>
<path style="fill:none;stroke-width:1.2;stroke-linecap:butt;stroke-linejoin:miter;stroke:rgb(0%,0%,0%);stroke-opacity:1;stroke-miterlimit:10;" d="M 200.207031 191.609375 L 196.210938 229.648438 "/>
<path style="fill:none;stroke-width:1.2;stroke-linecap:butt;stroke-linejoin:miter;stroke:rgb(0%,0%,0%);stroke-opacity:1;stroke-miterlimit:10;" d="M 208.757812 196.351562 L 205.5625 226.785156 "/>
<path style="fill:none;stroke-width:1.2;stroke-linecap:butt;stroke-linejoin:miter;stroke:rgb(0%,0%,0%);stroke-opacity:1;stroke-miterlimit:10;" d="M 235.152344 176.050781 L 200.207031 191.609375 "/>
<path style="fill:none;stroke-width:1.2;stroke-linecap:butt;stroke-linejoin:miter;stroke:rgb(0%,0%,0%);stroke-opacity:1;stroke-miterlimit:10;" d="M 196.210938 229.648438 L 227.15625 252.132812 "/>
<path style="fill:none;stroke-width:1.2;stroke-linecap:butt;stroke-linejoin:miter;stroke:rgb(0%,0%,0%);stroke-opacity:1;stroke-miterlimit:10;" d="M 227.15625 252.132812 L 262.097656 236.574219 "/>
<path style="fill:none;stroke-width:1.2;stroke-linecap:butt;stroke-linejoin:miter;stroke:rgb(0%,0%,0%);stroke-opacity:1;stroke-miterlimit:10;" d="M 226.988281 242.351562 L 254.945312 229.90625 "/>
<path style="fill:none;stroke-width:1.2;stroke-linecap:butt;stroke-linejoin:miter;stroke:rgb(0%,0%,0%);stroke-opacity:1;stroke-miterlimit:10;" d="M 262.097656 236.574219 L 266.097656 198.53125 "/>
<path style="fill:none;stroke-width:1.2;stroke-linecap:butt;stroke-linejoin:miter;stroke:rgb(0%,0%,0%);stroke-opacity:1;stroke-miterlimit:10;" d="M 266.097656 198.53125 L 235.152344 176.050781 "/>
<path style="fill:none;stroke-width:1.2;stroke-linecap:butt;stroke-linejoin:miter;stroke:rgb(0%,0%,0%);stroke-opacity:1;stroke-miterlimit:10;" d="M 257.710938 203.566406 L 232.957031 185.578125 "/>
</g>
</svg>

<svg xmlns="http://www.w3.org/2000/svg" xmlns:xlink="http://www.w3.org/1999/xlink" width="300pt" height="300pt" viewBox="0 0 300 300"><defs><symbol overflow="visible"><path d="M.797 2.828v-14.11h8V2.83zm.906-.89h6.203v-12.33H1.703zm0 0"/></symbol><symbol overflow="visible" id="a"><path d="M1.578-11.672h2.125l5.172 9.766v-9.766h1.53V0H8.282L3.11-9.766V0H1.577zm0 0"/></symbol><symbol overflow="visible" id="b"><path d="M1.578-11.672h1.578v4.78H8.89v-4.78h1.58V0H8.89v-5.563H3.157V0H1.578zm0 0"/></symbol></defs><g><path fill="#fff" d="M0 0h300v300H0z"/><path d="M132.887 180.945l18.187-5.91" stroke-width="1.2" stroke="#00f" stroke-miterlimit="10" fill="none"/><path d="M151.074 175.035l18.192-5.91M110.402 150l11.243 15.473" stroke-width="1.2" stroke="#000" stroke-miterlimit="10" fill="none"/><path d="M121.645 165.473l11.242 15.472" stroke-width="1.2" stroke="#00f" stroke-miterlimit="10" fill="none"/><path d="M120.887 171.445h24v19h-24zm0 0" fill="#fff"/><g fill="#00f"><use xlink:href="#a" x="120.887" y="186.297"/><use xlink:href="#b" x="132.855" y="186.297"/></g><path d="M169.266 169.125v-38.25M160.266 165.3v-30.6M169.266 169.125l30.94 22.484M169.266 130.875l-18.192-5.91" stroke-width="1.2" stroke="#000" stroke-miterlimit="10" fill="none"/><path d="M151.074 124.965l-18.187-5.91" stroke-width="1.2" stroke="#00f" stroke-miterlimit="10" fill="none"/><path d="M169.266 130.875l30.94-22.484" stroke-width="1.2" stroke="#000" stroke-miterlimit="10" fill="none"/><path d="M132.887 119.055l-11.242 15.472" stroke-width="1.2" stroke="#00f" stroke-miterlimit="10" fill="none"/><path d="M121.645 134.527L110.402 150" stroke-width="1.2" stroke="#000" stroke-miterlimit="10" fill="none"/><path d="M137.918 127.44l-8.992 12.376" stroke-width="1.2" stroke="#00f" stroke-miterlimit="10" fill="none"/><path d="M128.926 139.816l-8.992 12.38" stroke-width="1.2" stroke="#000" stroke-miterlimit="10" fill="none"/><path d="M126.887 109.555h12v19h-12zm0 0" fill="#fff"/><use xlink:href="#a" x="126.887" y="124.406" fill="#00f"/><path d="M110.402 150h-38.25M72.152 150h-38.25M72.152 150v-38.25M72.152 150v38.25M200.207 108.39l34.945 15.56M207.363 101.727l27.953 12.445M196.21 70.352l3.997 38.04M235.152 123.95l30.946-22.48M266.098 101.47l-2-19.025" stroke-width="1.2" stroke="#000" stroke-miterlimit="10" fill="none"/><path d="M264.098 82.445l-2-19.02" stroke-width="1.2" stroke="#00f" stroke-miterlimit="10" fill="none"/><path d="M256.746 98.605l-1.598-15.218" stroke-width="1.2" stroke="#000" stroke-miterlimit="10" fill="none"/><path d="M255.148 83.387l-1.6-15.215M262.098 63.426l-17.47-7.778" stroke-width="1.2" stroke="#00f" stroke-miterlimit="10" fill="none"/><path d="M244.63 55.648l-17.474-7.78" stroke-width="1.2" stroke="#000" stroke-miterlimit="10" fill="none"/><path d="M256.098 53.926h12v19h-12zm0 0" fill="#fff"/><use xlink:href="#a" x="256.098" y="68.777" fill="#00f"/><path d="M227.156 47.867L196.21 70.352M229.352 57.398l-24.758 17.985M200.207 191.61l-3.996 38.038M208.758 196.352l-3.196 30.433M235.152 176.05l-34.945 15.56M196.21 229.648l30.946 22.485M227.156 252.133l34.942-15.56M226.988 242.352l27.957-12.446M262.098 236.574l4-38.043M266.098 198.53l-30.946-22.48M257.71 203.566l-24.753-17.988" stroke-width="1.2" stroke="#000" stroke-miterlimit="10" fill="none"/></g></svg>
